X: 1
T: The Staffordshire Highland Gathering
R: polka
M: 2/4
L: 1/8
K: Dmaj
|:A>d|{g}f2a>f {g}e>g{a}f>e|{Gdc}d2{e}A2 {gBd}B2{g}e>f|{gf}g2{a}f<g a>g{a}f>d|{gcd}c2e2 {A}e2{g}A>d|
{g}f2a>f {g}e>g{a}f>e|{g}d>e{g}f>A {gBd}B2{g}f>g|{ag}a2f>d {g}A>{d}c{g}e>g|{fg}f2d2 {gdc}d2:|
|:{g}f>g|{ag}a3f1 {g}d>fa>f|{a}g>ag>e {gBd}B2{g}e>f|{gf}g2{a}f1<g1 a>g{a}f>d|{gcd}c2e2 {A}e2{g}f>g|
a>g{a}f>d {a}g>f{g}e>c|{g}d>e{g}f>d {gAd}A2{g}f>g|{ag}a2f>d {g}A>{d}c{g}e>g|{fg}f2d2 {gdc}d2:|
|:A2|{Gdc}d3e1 {g}f>e{g}d>A|{gBd}B2{gf}g2 B1{G}B1{g}e>d|{gcd}c2a1c1 {G}c>ae>c|{g}d>e{g}f>d {g}A>g{a}f>e|
{Gdc}d2{g}c1d1 {g}f>e{g}d>A|{g}B>g{a}f<g {a}B1{G}B1{g}f>g|{ag}a2f>d {g}A>{d}c{g}e>g|{fg}f2d2 {gdc}d2:|
|:{g}f>g|a>g{a}f>d {g}f<af>d|{a}g>f{g}e<g {gBd}B2{g}e>f|{a}g>ae>a c>d{g}e>c|{g}d>e{g}f>d
[1 {gAd}A2{g}f>g|
a>g{a}f>d {g}f<af>d|{a}g>f{g}e<g {gBd}B2{g}f>g|{ag}a2f>d {g}A>{d}c{g}e>g|{fg}f2d2 {gdc}d2:|
[2{g}A>g{a}f>e|{Gdc}d2{g}c>d {gef}e2{g}d>e|{g}f>e{g}d>A {gBd}B2{g}f>g|{ag}a2f>d {g}A>{d}c{g}e>g|{fg}f2d2 {gdc}d2||

